src/assets/images/currencies/bts.svg

<svg height="32" viewBox="0 0 32 32" width="32" xmlns="http://www.w3.org/2000/svg"><path d="m11.0003121 8 4.4581433 3.9543463c.0518719.0476088.1080075.0874008.1513525.1385618.0049659.030357.0070978.0609111.006395.0916639-.0021318 1.7032468.0042632 3.4050719-.0021318 5.1061876-.2245551.0462421-.4353591.1279574-.6324114.2451475l-3.9387128-3.9380026c-.0330514-.0268725-.047026-.0614533-.0419232-.1037438.0042624-1.8318606-.0000008-3.66229981.0042624-5.49273934zm5.2916465 6.1159132c1.1093953.0742054 2.083356.4763898 2.9218813 1.2065531-.2323578.2487033-.4831913.4831928-.7233647.72692-.5073507.5059289-1.0111472 1.0161213-1.5206282 1.5170762-.2077144-.1355108-.4332031-.2274115-.6764667-.2757029-.0056842-1.0566237 0-2.11538 0-3.1748464zm-5.2895153.4746638c1.1568152 1.1461563 2.3065244 2.3001293 3.4612076 3.4484167-.1350088.2096194-.2316473.4405567-.2856511.684283h-3.1776877v-4.1348323l.0021319.0021319zm8.246926 1.6577693c.1513516-.1449575.289915-.3005732.4497928-.440556.7303013.8352666 1.1329589 1.8063837 1.207977 2.9133525-1.0424117.0042656-2.0869567.0000015-3.1293685.0021339-.0625305.0142115-.0625305-.0582678-.0746103-.0973487-.0503676-.2074372-.1353985-.3995296-.2550954-.5762757.5968824-.6011466 1.2001593-1.20016 1.8013058-1.7991741v-.0021319zm-8.2490572 3.1506866h2.7151044c.1556157 0 .3112314-.0071058.468979.0035521.0483189.2401734.1421147.4689791.2749923.6736244l-2.2027799 2.1970951c-.016343.0127903-.0433449.0518719-.0625308.0213179-.7223038-.8314643-1.120225-1.7966601-1.193765-2.8955895zm6.7234549.0035521c.4476611-.009948.8910595 0 1.338722-.0035521h1.8446516c-.0716394 1.0895185-.4641131 2.0476079-1.1774217 2.8742716l-1.2847183-1.2804535c-.3211796-.3233113-.6487543-.6409387-.9663817-.9685135.1186659-.1904339.2018038-.4014752.2451481-.6217525zm-.8910602 1.2292935c.0497402-.0284236.0994797-.0582678.1492199-.0831379l2.2425725 2.2383091c-.8400232.7367262-1.8175354 1.141043-2.9325393 1.2129503v-3.1712924c.1899309-.0381884.3694694-.1045084.5386152-.1989601zm-3.2622463 1.2747703c.4561888-.4519252.9074036-.9095358 1.3678556-1.3571969.2060665.1321676.435582.2273838.6750455.2792557v3.1712924c-1.1101348-.0724139-2.0840946-.474599-2.9218806-1.2065537.2863607-.3005744.5869339-.5883563.8789795-.8846672v-.0021317z" fill="#ff9580" fill-rule="evenodd"/></svg>

<svg xmlns="http://www.w3.org/2000/svg" width="32" height="32" viewBox="0 0 32 32">
  <path fill="#FF9580" fill-rule="evenodd" d="M11.0003121,8 L15.4584554,11.9543463 C15.5103273,12.0019551 15.5664629,12.0417471 15.6098079,12.0929081 C15.6147738,12.1232651 15.6169057,12.1538192 15.6162029,12.184572 C15.6140711,13.8878188 15.6204661,15.5896439 15.6140711,17.2907596 C15.389516,17.3370017 15.178712,17.418717 14.9816597,17.5359071 L11.0429469,13.5979045 C11.0098955,13.571032 10.9959209,13.5364512 11.0010237,13.4941607 C11.0052861,11.6623001 11.0010229,9.83186089 11.0052861,8.00142136 L11.0003121,8 Z M16.2919586,14.1159132 C17.4013539,14.1901186 18.3753146,14.592303 19.2138399,15.3224663 C18.9814821,15.5711696 18.7306486,15.8056591 18.4904752,16.0493863 C17.9831245,16.5553152 17.479328,17.0655076 16.969847,17.5664625 C16.7621326,17.4309517 16.5366439,17.339051 16.2933803,17.2907596 C16.2876961,16.2341359 16.2933803,15.1753796 16.2933803,14.1159132 L16.2919586,14.1159132 Z M11.0024433,14.590577 C12.1592585,15.7367333 13.3089677,16.8907063 14.4636509,18.0389937 C14.3286421,18.2486131 14.2320036,18.4795504 14.1779998,18.7232767 L11.0003121,18.7232767 L11.0003121,14.5884444 L11.002444,14.5905763 L11.0024433,14.590577 Z M19.2493693,16.2483463 C19.4007209,16.1033888 19.5392843,15.9477731 19.6991621,15.8077903 C20.4294634,16.6430569 20.832121,17.614174 20.9071391,18.7211428 C19.8647274,18.7254084 18.8201824,18.7211443 17.7777706,18.7232767 C17.7152401,18.7374882 17.7152401,18.6650089 17.7031603,18.625928 C17.6527927,18.4184908 17.5677618,18.2263984 17.4480649,18.0496523 C18.0449473,17.4485057 18.6482242,16.8494923 19.2493707,16.2504782 L19.2493707,16.2483463 L19.2493693,16.2483463 Z M11.0003121,19.3990329 L13.7154165,19.3990329 C13.8710322,19.3990329 14.0266479,19.3919271 14.1843955,19.402585 C14.2327144,19.6427584 14.3265102,19.8715641 14.4593878,20.0762094 L12.2566079,22.2733045 C12.2402649,22.2860948 12.213263,22.3251764 12.1940771,22.2946224 C11.4717733,21.4631581 11.0738521,20.4979623 11.0003121,19.3990329 Z M17.723767,19.402585 C18.1714281,19.392637 18.6148265,19.402585 19.062489,19.3990329 L20.9071406,19.3990329 C20.8355012,20.4885514 20.4430275,21.4466408 19.7297189,22.2733045 L18.4450006,20.992851 C18.123821,20.6695397 17.7962463,20.3519123 17.4786189,20.0243375 C17.5972848,19.8339036 17.6804227,19.6228623 17.723767,19.402585 Z M16.8327068,20.6318785 C16.882447,20.6034549 16.9321865,20.5736107 16.9819267,20.5487406 L19.2244992,22.7870497 C18.384476,23.5237759 17.4069638,23.9280927 16.2919599,24 L16.2919599,20.8287076 C16.4818908,20.7905192 16.6614293,20.7241992 16.8305751,20.6297475 L16.8327068,20.6318785 Z M13.5704605,21.9066488 C14.0266493,21.4547236 14.4778641,20.997113 14.9383161,20.5494519 C15.1443826,20.6816195 15.3738981,20.7768357 15.6133616,20.8287076 L15.6133616,24 C14.5032268,23.9275861 13.529267,23.525401 12.691481,22.7934463 C12.9778417,22.4928719 13.2784149,22.20509 13.5704605,21.9087791 L13.5704605,21.9066474 L13.5704605,21.9066488 Z"/>
</svg>
